X: 31109
T: Paddy Fahey's
R: jig
M: 6/8
K: Gmajor
G,B,D GBd|~g3 dBG|DFA cAd|BAG FDB,|
G,B,D GBd|~g3 dBG|DFA cBA|1 AGF GDB,:|2 AGF GBd||
~g3 dBG|DFA cBA|GBd ~g3|f/g/af dfa|
g2a bag|faf dfa|gfd cAF|1 AGF GBd:|2 AGF GDB,||

